tools/download-figma-icons/icons/solid/checklist.svg

<svg width="24" height="24" viewBox="0 0 24 24" fill="none" xmlns="http://www.w3.org/2000/svg">
<path fill-rule="evenodd" clip-rule="evenodd" d="M17.5501 18.3302H12.6901C12.2701 18.3302 11.9401 17.9928 11.9401 17.5802C11.9401 17.167 12.2701 16.8302 12.6901 16.8302H17.5501C17.9626 16.8302 18.3001 17.167 18.3001 17.5802C18.3001 17.9928 17.9626 18.3302 17.5501 18.3302ZM12.6526 10.8077H17.5201C17.9326 10.8077 18.2701 11.1452 18.2701 11.5577C18.2701 11.977 17.9326 12.3077 17.5201 12.3077H12.6526C12.2401 12.3077 11.9026 11.977 11.9026 11.5577C11.9026 11.1452 12.2401 10.8077 12.6526 10.8077ZM10.6501 11.0253L8.50437 13.162C8.35512 13.3128 8.16762 13.3795 7.97187 13.3795C7.78437 13.3795 7.59012 13.3128 7.44687 13.162L6.15762 11.8795C5.86512 11.5878 5.86512 11.1078 6.15762 10.8145C6.45012 10.5228 6.93012 10.5228 7.22187 10.8145L7.97187 11.572L9.58512 9.96025C9.87762 9.667 10.3494 9.667 10.6501 9.96025C10.9419 10.252 10.9419 10.7245 10.6501 11.0253ZM10.4026 18.442C10.6944 18.7352 10.6944 19.2077 10.4026 19.5002C10.2594 19.6502 10.0651 19.7245 9.87012 19.7245C9.68262 19.7245 9.48762 19.6502 9.34512 19.5002L8.48262 18.6377L7.62012 19.5002C7.47012 19.6502 7.28262 19.7245 7.08762 19.7245C6.90012 19.7245 6.70512 19.6502 6.56262 19.5002C6.26262 19.2077 6.26262 18.7352 6.56262 18.442L7.41762 17.5802L6.56262 16.7177C6.26262 16.4252 6.26262 15.9527 6.56262 15.6595C6.85512 15.3677 7.32762 15.3677 7.62012 15.6595L8.48262 16.5227L9.34512 15.6595C9.63762 15.3677 10.1101 15.3677 10.4026 15.6595C10.6944 15.9527 10.6944 16.4252 10.4026 16.7177L9.53937 17.5802L10.4026 18.442ZM8.37163 3.31299L10.2751 3.34524C10.6876 3.34524 11.0251 3.00699 11.0251 2.59524C11.0251 1.98774 11.5126 1.50024 12.1201 1.50024C12.7201 1.50024 13.2076 1.98774 13.2076 2.59524C13.2076 3.00699 13.5451 3.34524 13.9576 3.34524H15.8664V5.54424L8.37163 5.51199V3.31299ZM20.4826 1.84524H14.6019C14.2801 0.780244 13.2826 0.000244141 12.1201 0.000244141C10.9419 0.000244141 9.95262 0.780244 9.62937 1.84524H3.75012C3.33762 1.84524 3.00012 2.18274 3.00012 2.59524V23.2427C3.00012 23.662 3.33762 23.9927 3.75012 23.9927H20.4826C20.8951 23.9927 21.2326 23.662 21.2326 23.2427V2.59524C21.2326 2.18274 20.8951 1.84524 20.4826 1.84524Z" fill="black"/>
</svg>

<svg xmlns="http://www.w3.org/2000/svg" width="24" height="24" fill="none" viewBox="0 0 24 24"><path fill="currentColor" fill-rule="evenodd" d="M17.55 18.33h-4.86a.747.747 0 0 1-.75-.75c0-.413.33-.75.75-.75h4.86c.413 0 .75.337.75.75s-.337.75-.75.75m-4.897-7.522h4.867c.413 0 .75.337.75.75 0 .419-.337.75-.75.75h-4.867a.75.75 0 0 1-.75-.75c0-.413.337-.75.75-.75m-2.003.217-2.146 2.137a.73.73 0 0 1-.532.217.72.72 0 0 1-.525-.217l-1.29-1.283a.756.756 0 0 1 0-1.064.757.757 0 0 1 1.065 0l.75.757L9.585 9.96a.755.755 0 0 1 1.065 0 .757.757 0 0 1 0 1.065m-.247 7.417a.75.75 0 0 1 0 1.058.73.73 0 0 1-1.058 0l-.862-.862-.863.862a.74.74 0 0 1-.532.224.73.73 0 0 1-.525-.224.735.735 0 0 1 0-1.058l.855-.862-.855-.862a.735.735 0 0 1 0-1.059.75.75 0 0 1 1.057 0l.863.864.862-.864a.748.748 0 0 1 1.058 1.059l-.864.862zM8.372 3.313l1.903.032c.413 0 .75-.338.75-.75a1.092 1.092 0 1 1 2.183 0c0 .412.337.75.75.75h1.908v2.2l-7.494-.033zm12.11-1.468h-5.88A2.605 2.605 0 0 0 12.12 0c-1.178 0-2.167.78-2.49 1.845H3.75a.75.75 0 0 0-.75.75v20.648c0 .419.338.75.75.75h16.733c.412 0 .75-.331.75-.75V2.595a.75.75 0 0 0-.75-.75" clip-rule="evenodd"/></svg>
